modules/hawcons-filled/icons/box.svg

<?xml version="1.0" encoding="UTF-8" standalone="no"?>
<svg width="32px" height="32px" viewBox="0 0 32 32" version="1.1" xmlns="http://www.w3.org/2000/svg" xmlns:xlink="http://www.w3.org/1999/xlink" xmlns:sketch="http://www.bohemiancoding.com/sketch/ns">
    <!-- Generator: Sketch 3.0.3 (7891) - http://www.bohemiancoding.com/sketch -->
    <title>icon 143 box</title>
    <desc>Created with Sketch.</desc>
    <defs></defs>
    <g id="Page-1" stroke="none" stroke-width="1" fill="none" fill-rule="evenodd" sketch:type="MSPage">
        <g id="icon-143-box" sketch:type="MSArtboardGroup" fill="#929292">
            <path d="M28,13 L28,28 L5,28 L5,13 L28,13 L28,13 Z M30,12 L30,5 L3,5 L3,12 L30,12 L30,12 L30,12 Z M13.9973917,18 C12.8942627,18 12,18.8877296 12,20 C12,21.1045695 12.8958578,22 13.9973917,22 L19.0026083,22 C20.1057373,22 21,21.1122704 21,20 C21,18.8954305 20.1041422,18 19.0026083,18 L13.9973917,18 L13.9973917,18 Z" id="box" sketch:type="MSShapeGroup"></path>
        </g>
    </g>
</svg>

<svg width="32" height="32" viewBox="0 0 32 32" xmlns="http://www.w3.org/2000/svg"><path d="M28 13v15H5V13h23zm2-1V5H3v7h27zm-16.003 6A1.994 1.994 0 0 0 12 20a2 2 0 0 0 1.997 2h5.006A1.994 1.994 0 0 0 21 20a2 2 0 0 0-1.997-2h-5.006z" fill="#929292" fill-rule="evenodd"/></svg>
